X:1
T:(unknown title)
M:5/4
L:1/4
K:G
 z2 z D/2D/2| G2 A/2 A3/2|
M:5/4
 B d2 B3/2 A/2|
M:4/4
 G/2 G3/2 C3/2 C/2| D3 D| G2 A/2 A3/2|
M:5/4
 B d2 B3/2 A/2|
M:4/4
 G2 C3/2 C/2| D3 D| B2 B3/2 A/2|
M:5/4
 A/2 G/2- G2 G A| B3/2 F/2 A3/2 G/2 D-|
M:4/4
 D2- D D| B/2 B/2- B2 A| A G2 G/2A/2| B3/2 G/2 A G| D2 D D| G2 A/2 A3/2|\

M:5/4
 B d2 B3/2 A/2| G/2 G3/2 C3/2 C/2 D3| z|

